public/assets/imgs/page/homepage8/flight.svg

<svg width="25" height="24" viewBox="0 0 25 24" fill="none" xmlns="http://www.w3.org/2000/svg">
<path d="M20.357 6.46676C20.3576 5.97906 20.2135 5.50214 19.9429 5.09641C19.6723 4.69069 19.2873 4.37443 18.8367 4.1877C18.3862 4.00098 17.8904 3.95219 17.4121 4.04752C16.9338 4.14285 16.4945 4.37801 16.15 4.7232L13.9026 6.97064L8.71189 5.24307C8.57369 5.19963 8.42629 5.19455 8.28543 5.22836C8.14456 5.26216 8.01553 5.33359 7.91209 5.43502L6.00857 7.32255C5.91838 7.41379 5.85146 7.52539 5.81346 7.64792C5.77546 7.77046 5.76749 7.90034 5.79023 8.0266C5.81298 8.15287 5.86576 8.2718 5.94413 8.37338C6.0225 8.47496 6.12415 8.55619 6.24051 8.61023L10.3835 10.4898L8.304 12.5692L6.93634 11.8814C6.78867 11.8015 6.6196 11.7701 6.45309 11.7916C6.28657 11.8131 6.13105 11.8865 6.00857 12.0014L4.59293 13.449C4.44396 13.5989 4.36035 13.8016 4.36035 14.0129C4.36035 14.2242 4.44396 14.4269 4.59293 14.5767L9.78362 19.7674C9.93348 19.9164 10.1362 20 10.3475 20C10.5588 20 10.7615 19.9164 10.9113 19.7674L12.359 18.3518C12.479 18.233 12.5584 18.0792 12.5857 17.9126C12.613 17.7459 12.5868 17.5749 12.5109 17.424L11.8231 16.0564L13.9026 13.9769L15.7821 18.1198C15.8362 18.2362 15.9174 18.3379 16.019 18.4162C16.1205 18.4946 16.2395 18.5474 16.3657 18.5701C16.492 18.5929 16.6219 18.5849 16.7444 18.5469C16.867 18.5089 16.9786 18.442 17.0698 18.3518L18.9573 16.4643C19.0587 16.3608 19.1302 16.2318 19.164 16.0909C19.1978 15.9501 19.1927 15.8027 19.1493 15.6645L17.4217 10.4738L19.6372 8.21033C19.8669 7.98204 20.0488 7.71029 20.1724 7.41094C20.296 7.11158 20.3587 6.79062 20.357 6.46676ZM18.5014 7.08261L15.9101 9.67396C15.8087 9.77739 15.7372 9.90643 15.7034 10.0473C15.6696 10.1882 15.6747 10.3356 15.7181 10.4738L17.4457 15.6565L16.7259 16.3763L14.8464 12.2413C14.793 12.1239 14.7121 12.0211 14.6104 11.9417C14.5087 11.8623 14.3894 11.8087 14.2625 11.7854C14.1346 11.7621 14.0029 11.7703 13.8789 11.8093C13.7548 11.8483 13.6422 11.917 13.5507 12.0094L10.2555 15.3365C10.1372 15.4547 10.0589 15.607 10.0317 15.772C10.0044 15.937 10.0295 16.1064 10.1035 16.2563L10.7594 17.6L10.3115 18.0479L6.2885 14.0169L6.76038 13.601L8.12804 14.2888C8.27799 14.3628 8.44737 14.3879 8.61235 14.3607C8.77734 14.3334 8.92963 14.2551 9.04781 14.1368L12.359 10.8097C12.4509 10.7185 12.5193 10.6064 12.5583 10.4829C12.5973 10.3595 12.6058 10.2284 12.5829 10.101C12.5601 9.97355 12.5067 9.85356 12.4273 9.75132C12.3479 9.64907 12.2449 9.56764 12.127 9.514L7.96008 7.63447L8.6799 6.91465L13.8626 8.64222C14.0008 8.68565 14.1482 8.69074 14.2891 8.65693C14.4299 8.62312 14.559 8.55169 14.6624 8.45027L17.2537 5.85892C17.3334 5.77742 17.4286 5.71266 17.5337 5.66845C17.6388 5.62425 17.7516 5.60147 17.8656 5.60147C17.9796 5.60147 18.0924 5.62425 18.1975 5.66845C18.3026 5.71266 18.3977 5.77742 18.4774 5.85892C18.5609 5.93621 18.6268 6.03041 18.671 6.13523C18.7151 6.24005 18.7364 6.35307 18.7334 6.46676C18.7377 6.57969 18.7194 6.69235 18.6796 6.79811C18.6398 6.90387 18.5792 7.0006 18.5014 7.08261Z" fill="#004B52"/>
</svg>

<svg xmlns="http://www.w3.org/2000/svg" width="25" height="24" fill="none"><path fill="#004B52" d="M20.357 6.467a2.464 2.464 0 0 0-4.207-1.744l-2.247 2.248-5.191-1.728a.8.8 0 0 0-.8.192L6.01 7.323A.8.8 0 0 0 6.24 8.61l4.143 1.88-2.08 2.08-1.368-.689a.8.8 0 0 0-.927.12L4.593 13.45a.8.8 0 0 0 0 1.128l5.19 5.19a.8.8 0 0 0 1.128 0l1.448-1.415a.8.8 0 0 0 .152-.928l-.688-1.368 2.08-2.08 1.88 4.144a.8.8 0 0 0 1.287.232l1.887-1.888a.8.8 0 0 0 .192-.8l-1.727-5.19 2.215-2.264a2.44 2.44 0 0 0 .72-1.743Zm-1.856.616-2.59 2.591a.8.8 0 0 0-.193.8l1.728 5.182-.72.72-1.88-4.135a.8.8 0 0 0-1.295-.232l-3.296 3.327a.8.8 0 0 0-.152.92l.656 1.344-.447.448-4.023-4.031.471-.416 1.368.688a.8.8 0 0 0 .92-.152l3.311-3.327a.8.8 0 0 0-.232-1.296L7.96 7.634l.72-.72 5.183 1.728a.8.8 0 0 0 .8-.192l2.59-2.591a.856.856 0 0 1 1.224 0 .8.8 0 0 1 .256.608.85.85 0 0 1-.232.616Z"/></svg>
